X: 30978
T: Oystercatcher, The
R: waltz
M: 3/4
K: Gmajor
d2|g2>f2 gd|B2>A2 GB|c2>d2 ec|d2>e2 f2|
G2>F2 GB|e2>d2 cB|A2>B2 cG|f2>e2 df|
g2>f2 gd|G2>F2 GB|c2>d2 ec|d2>e2 f2|
g2>d2 BG|e2>c2 GE|F2>G2 (3AGF|G4:|
d2|g2>a2 bg|a2 f2 d2|c'b ae ga|f2>e2 d2|
g2>G2 FG|d2 GF GB|cB cd (3efg|f2>e2 d2|
g2>a2 (3bag|a2>d'2 af|g4 fg|d2>B2 GD|
E2>A2 ce|d2>B2 GD|F2>G2 (3AGF|G4:|

